X:1
T:Title
%%score 1 2
L:1/8
Q:1/4=120
M:6/4
K:Bb
V:1 treble nm="Strings 1, Treble"
V:2 bass nm="Strings 1, Bass"
V:1
 [B,D]4 [A,E]2 [B,F]4 [Fd]2 | [Fc]4 [FB]2 [GB]6 | [GB]4 [EG]2 [EB]4 [EG]2 | [DF]4 [CE]2 [B,D]6 | %4
w: 1.~Long~ my~ rest less~|soul~ had~ sought~|Ref uge~ from~ the~|trou bled~ sea;~|
 [B,D]4 [A,E]2 [B,F]4 [Fd]2 | [Fc]4 [FB]2 [GB]6 | [Fc]4 [Fd]2 [Fc]4 [FA]2 | [GB]4 [=EG]2 F6 | %8
w: Strug gling~ vain ly~|till~ I~ thought~|There~ was~ no~ re|pose~ for~ me;~|
 [CE]4 [CE]2 [CE]4 [A,F]2 | [B,D]4 [CE]2 [DF]6 | [Fd]4 [Ec]2 [DB]4 [EA]2 | [FB]4 [Fc]2 [Fd]6 | %12
w: Je sus~ whis pered~|'mid~ the~ storm,~|"Trust~ Mine~ ev er|last ing~ arm,"~|
 [Fd]4 [Fc]2 [FB]4 [Gc]2 | [FB]6 [EA]6 | [DB]12 |] %15
w: "Trust~ mine~ ev er|last ing~|arm."~|
V:2
 [B,,F,]4 [C,F,]2 [D,B,]4 [B,,B,]2 | [C,A,]4 [D,B,]2 [E,B,]6 | [E,E]4 [E,B,]2 [E,G,]4 [E,B,]2 | %3
 [F,B,]4 [F,,F,]2 [B,,F,]6 | [B,,F,]4 [C,F,]2 [D,B,]4 [B,,B,]2 | [C,A,]4 [D,B,]2 [E,B,]6 | %6
 [F,A,]4 [F,B,]2 [F,A,]4 [F,C]2 | [C,C]4 [C,B,]2 [F,A,]6 | [F,A,]4 F,2 [F,,F,]4 [F,,F,]2 | %9
 [B,,F,]4 [B,,F,]2 [B,,B,]6 | [B,,B,]4 [B,,F,]2 [B,,F,]4 [C,F,]2 | [D,B,]4 [F,A,]2 B,6 | %12
 [B,,B,]4 [C,A,]2 [D,B,]4 [E,E]2 | [F,D]6 [F,C]6 | [B,,B,]12 |] %15

